svgs/duotone/lungs.svg

<svg xmlns="http://www.w3.org/2000/svg" viewBox="0 0 640 512"><!--! Font Awesome Pro 6.3.0 by @fontawesome - https://fontawesome.com License - https://fontawesome.com/license (Commercial License) Copyright 2023 Fonticons, Inc. --><defs><style>.fa-secondary{opacity:.4}</style></defs><path class="fa-primary" d="M516.4 329.3l-8.875 13.31c-4.9 7.352-14.83 9.34-22.19 4.438l-147.6-98.42c-10.75-7.166-24.75-7.166-35.5 0l-147.6 98.42c-7.352 4.902-17.29 2.914-22.19-4.438l-8.875-13.31C118.7 321.1 120.6 312.1 128 307.2l153.8-102.5C290.7 198.7 296 188.7 296 178V16C296 7.164 303.2 0 312 0h16c8.838 0 16 7.164 16 16v162c0 10.7 5.347 20.69 14.25 26.63L512 307.2C519.4 312.1 521.3 321.1 516.4 329.3z"/><path class="fa-secondary" d="M186 96c-44 0-57.1 28.5-80.12 63.13C59.91 231 25.5 308.9 3.875 390.1C1.25 399.9 0 409.8 0 419.8c0 61.25 62.5 105.5 125.2 88.63l59.53-15.88c42.13-11.38 71.25-47.5 71.25-88.63L256 279.5l-101.4 67.58c-7.352 4.902-17.29 2.914-22.19-4.438l-8.875-13.31C118.7 321.1 120.6 312.1 128 307.2l128-85.31v-60.1C256 125.4 224.7 96 186 96zM636.1 390.1C614.5 308.9 580.1 231 534.1 159.1c-22.12-34.63-36.13-63.13-80.13-63.13C415.3 96 384 125.4 384 161.8v60.1l128 85.31c7.354 4.902 9.34 14.84 4.438 22.19l-8.875 13.31c-4.9 7.352-14.83 9.34-22.19 4.438L384 279.5l-.0313 124.4c0 41.13 29.12 77.25 71.25 88.63l59.53 15.88C577.5 525.3 640 481 640 419.8C640 409.8 638.8 399.9 636.1 390.1z"/></svg>

<svg xmlns="http://www.w3.org/2000/svg" viewBox="0 0 640 512"><!-- Font Awesome Pro 6.0.0-alpha2 by @fontawesome - https://fontawesome.com License - https://fontawesome.com/license (Commercial License) --><defs><style>.fa-secondary{opacity:.4}</style></defs><path d="M186 96.001C142 96.001 128 124.501 105.875 159.127C59.875 231.002 25.5 308.878 3.875 390.129C1.25 399.879 0 409.754 0 419.754C0 481.005 62.5 525.255 125.25 508.38L184.75 492.505C226.875 481.13 256 445.005 256 403.879V279.515L154.625 347.097C147.273 352 137.34 350.011 132.437 342.66L123.562 329.347C118.662 321.995 120.648 312.062 128 307.159L256 221.823V161.752C256 125.376 224.625 96.001 186 96.001ZM636.125 390.129C614.5 308.878 580.125 231.002 534.125 159.127C512 124.501 498 96.001 454 96.001C415.375 96.001 384 125.376 384 161.752V221.823L512 307.159C519.354 312.062 521.34 321.995 516.438 329.347L507.562 342.66C502.662 350.011 492.729 352 485.375 347.097L384 279.515V403.879C384 445.005 413.125 481.13 455.25 492.505L514.75 508.38C577.5 525.255 640 481.005 640 419.754C640 409.754 638.75 399.879 636.125 390.129Z" class="fa-secondary"/><path d="M516.563 329.347L507.688 342.66C502.788 350.011 492.854 352 485.501 347.097L337.876 248.68C327.127 241.514 313.124 241.514 302.375 248.68L154.751 347.097C147.399 352 137.465 350.011 132.563 342.66L123.688 329.347C118.788 321.995 120.774 312.062 128.126 307.159L281.876 204.658C290.778 198.723 296.126 188.732 296.126 178.032V16C296.126 7.164 303.29 0 312.126 0H328.126C336.964 0 344.126 7.164 344.126 16V178.032C344.126 188.732 349.473 198.723 358.375 204.658L512.126 307.159C519.479 312.062 521.465 321.995 516.563 329.347Z" class="fa-primary"/></svg>
